X:249
T:Man from Bundoran
R:reel
D:Four Men and a Dog: Barking Mad
D:Altan: Harvest Storm
D:John McHugh & Barry Carroll: The Long Finger
Z:id:hn-reel-463
M:C|
K:Edor
BE~E2 BEdE|BE~E2 BcdB|cA~A2 cAeA|1 (3Bcd ef e2dc:|2 (3Bcd ef ~e3f||
dffe dcBA|~f3e d2de|fA~A2 fgaf|ecAc ~e3g|
~f3e dcBA|effe dcde|fdAd fgaf|ecAc e2dc||
"variations"
|:BE~E2 BEdE|BE~E2 BcdB|cA~A2 cdeA|1 cdef e2dc:|2 cdef ~e3f||
dfef dcBA|dffe dcde|~f3e fgaf|ecAc efge|
f2ef dcBA|~f3e d2de|fA~A2 fgaf|ecAc e2dc||
